X: 339
T: Polecat Blues
B: canberra pickers and fiddlers
B: tunes
M:2/4
L:1/8
R: Reel
Q: 1/4=100
K:D
V:1 
|:a4|a2 a2-|abag|fd3|a4|a2 a2-|abag|fd3|B4|
g2b2-|bgag|fd3|fafe|d2f2-|ffff|f2d2|(cB3)|A3B|A2BA|
cBAF|EDB,2|[F4D4]-|[FD][FD][FD][FD]|[F4D4]-|[F4D4]:|D3 D-|D2E2|F3 F-|F2G
2|A3 A-|A2B2|=c2=c2|BA3|FECF|EDD2|B,DEF|ED3|D2ED|FEDB,|
D4|ABA=c-|=cBAF|ABAF|EDB,A,|[F4D4]-|[FD][FD][F2D2]|[F4D4]-|[F4D4]||([F2D 2]D2)|
([F2D2]D2)|([F2D2]D2)|[F4D4]|([F2D2]D2)|([F2D2]D2)|([F2D2]D2)|[F4D4]|B4|B4|BAdB|
AFE2|D2DF|EDB,A,|D4|ABA=c-|=cBAF|ABAF|EDB,A,|[F4D4]-|[F4D4]|]
% abcbook-tune_id 679ffb2400b261a5c8d4ddcb
% abcbook-tune_composer_id 
% abcbook-link-0 https://www.youtube.com/watch?v=uldy6DvNqd8
% abcbook-link-title-0 Polecat Blues - Molsky Mountain Drifters - Red Light Cafe
% abcbook-boost 0
% abcbook-difficulty 0
% abcbook-tags old time tunes
% abcbook-tablature 
% abcbook-transpose 
% abcbook-tuning ADAE
% abcbook-lastupdated 1738647498437
% abcbook-src-url 
% abcbook-soundfonts 
% abcbook-repeats 1


